X:523
T:Marquis of Huntly's Highland Fling
R:Strathspey
C:George Jenkins
B:The Athole Collection
M:C|
L:1/8
K:D
A|d<d f>d g>e f<d|B<B e>d c>AA>c|d<d f>d g>ef>d|
B>e d/c/B/A/ d2d:|
|:B|A>DF>D A>Bd>e|f<d g>f e>d B<d|A>DF>D A>B d<b|1
a<f e>f d2d:|2 (3agf (3gfe d2d||

